src/assets/wallet.svg

<svg height="90" viewBox="0 0 87 90" width="87" xmlns="http://www.w3.org/2000/svg" xmlns:xlink="http://www.w3.org/1999/xlink"><mask id="a" fill="#fff"><path d="m0 0h87v90h-87z" fill="#fff" fill-rule="evenodd"/></mask><g fill="none" fill-rule="evenodd"><path d="m55.981 50.462c1.353-1.349 3.246-2.188 5.32-2.188 2.09 0 3.968.84 5.32 2.188 1.368 1.364 2.21 3.238 2.21 5.306 0 2.083-.842 3.957-2.21 5.32-1.352 1.35-3.23 2.189-5.32 2.189-2.089 0-3.967-.84-5.32-2.188-1.367-1.364-2.209-3.238-2.209-5.321 0-2.068.842-3.942 2.21-5.306zm5.32-.03c1.488 0 2.826.6 3.787 1.574.977.96 1.578 2.293 1.578 3.762 0 1.484-.6 2.818-1.578 3.792-.961.959-2.299 1.558-3.787 1.558s-2.825-.599-3.787-1.558c-.977-.974-1.578-2.308-1.578-3.792 0-1.469.601-2.803 1.578-3.762.962-.974 2.3-1.574 3.787-1.574zm23.535-5.995v22.663h-34.641c-.45 0-.856-.165-1.142-.465-.3-.3-.48-.704-.48-1.154v-19.411c0-.434.164-.824.435-1.108l.045-.045c.286-.285.691-.48 1.142-.48zm-42.816-25.284h9.287l11.317-3.687c.556-.18 1.172.12 1.352.69.18.569-.135 1.183-.691 1.363l-5.004 1.634h8.49l-2.389-7.3zm-17.298 0 42.215-13.774h.015c.42-.135.872-.09 1.247.105.361.18.662.51.797.929h.015l4.163 12.74h-4.118l-2.96-8.993c-.166-.57-.782-.884-1.353-.69l-29.697 9.683zm-14.202 0 24.226-16.713c.36-.255.811-.33 1.217-.255s.797.3 1.037.66l5.68 8.183-4.282 1.394-3.186-4.601c-.33-.48-1.022-.6-1.503-.27l-16.817 11.6h-6.372zm73.685 50.119v14.253c0 1.784-.722 3.402-1.909 4.572-1.172 1.169-2.795 1.903-4.599 1.903h-71.19c-1.788 0-3.411-.72-4.583-1.888l-.015-.015c-1.173-1.184-1.909-2.803-1.909-4.572v-57.898c0-1.783.736-3.402 1.909-4.57 1.172-1.185 2.81-1.904 4.598-1.904h.21l26.798-18.48c.856-.6 1.878-.78 2.84-.615.947.18 1.833.72 2.435 1.574l6.026 8.693 21.4-6.985.15-.03c.963-.3 1.955-.18 2.796.24.857.42 1.533 1.17 1.864 2.114.03.045.045.105.06.15l4.358 13.339h2.254c1.789 0 3.412.719 4.6 1.903 1.186 1.17 1.908 2.788 1.908 4.571v16.653h1.713c.601 0 1.082.494 1.082 1.079v24.835c0 .6-.48 1.079-1.082 1.079h-1.713zm-2.165-26.993v-16.652c0-1.184-.481-2.263-1.278-3.057-.781-.78-1.863-1.26-3.066-1.26h-71.189c-1.202 0-2.284.48-3.065 1.26-.782.794-1.278 1.873-1.278 3.057v57.898c0 1.184.496 2.263 1.278 3.043v.015c.781.78 1.863 1.259 3.065 1.259h71.19c1.203 0 2.285-.495 3.066-1.274.797-.78 1.278-1.859 1.278-3.043v-14.253h-31.846c-1.037 0-1.984-.42-2.675-1.11-.691-.689-1.112-1.633-1.112-2.682v-19.41c0-1.003.39-1.933 1.037-2.607l.075-.075c.676-.69 1.638-1.11 2.675-1.11h31.846zm-45.776-29.151-2.21-3.193-10.73 7.404z" fill="#cc1e46" mask="url(#a)"/><circle cx="61" cy="56" r="6.5" stroke="#fff" stroke-width="3"/></g></svg>

<?xml version="1.0" encoding="UTF-8" standalone="no"?>
<svg
   width="87"
   height="90"
   viewBox="0 0 87 90"
   version="1.1"
   id="svg23"
   sodipodi:docname="novcanik.svg"
   inkscape:version="1.1 (c68e22c387, 2021-05-23)"
   xmlns:inkscape="http://www.inkscape.org/namespaces/inkscape"
   xmlns:sodipodi="http://sodipodi.sourceforge.net/DTD/sodipodi-0.dtd"
   xmlns:xlink="http://www.w3.org/1999/xlink"
   xmlns="http://www.w3.org/2000/svg"
   xmlns:svg="http://www.w3.org/2000/svg">
  <sodipodi:namedview
     id="namedview25"
     pagecolor="#ffffff"
     bordercolor="#666666"
     borderopacity="1.0"
     inkscape:pageshadow="2"
     inkscape:pageopacity="0.0"
     inkscape:pagecheckerboard="0"
     showgrid="false"
     inkscape:zoom="4.1833333"
     inkscape:cx="45.537849"
     inkscape:cy="58.924303"
     inkscape:window-width="1550"
     inkscape:window-height="1004"
     inkscape:window-x="185"
     inkscape:window-y="39"
     inkscape:window-maximized="1"
     inkscape:current-layer="svg23" />
  <defs
     id="defs6">
    <path
       id="zsapdi31pb"
       d="M0 0L87 0 87 90 0 90z" />
    <mask
       id="xo1ru64myc"
       fill="#ffffff">
      <use
         xlink:href="#zsapdi31pb"
         id="use8"
         x="0"
         y="0"
         width="100%"
         height="100%" />
    </mask>
  </defs>
  <path
     fill="#30383b"
     d="m 55.981,50.462 c 1.353,-1.349 3.246,-2.188 5.32,-2.188 2.09,0 3.968,0.84 5.32,2.188 1.368,1.364 2.21,3.238 2.21,5.306 0,2.083 -0.842,3.957 -2.21,5.32 -1.352,1.35 -3.23,2.189 -5.32,2.189 -2.089,0 -3.967,-0.84 -5.32,-2.188 -1.367,-1.364 -2.209,-3.238 -2.209,-5.321 0,-2.068 0.842,-3.942 2.21,-5.306 z m 5.32,-0.03 c 1.488,0 2.826,0.6 3.787,1.574 0.977,0.96 1.578,2.293 1.578,3.762 0,1.484 -0.6,2.818 -1.578,3.792 -0.961,0.959 -2.299,1.558 -3.787,1.558 -1.488,0 -2.825,-0.599 -3.787,-1.558 -0.977,-0.974 -1.578,-2.308 -1.578,-3.792 0,-1.469 0.601,-2.803 1.578,-3.762 0.962,-0.974 2.3,-1.574 3.787,-1.574 z M 84.836,44.437 V 67.1 H 50.195 c -0.45,0 -0.856,-0.165 -1.142,-0.465 -0.3,-0.3 -0.48,-0.704 -0.48,-1.154 V 46.07 c 0,-0.434 0.164,-0.824 0.435,-1.108 l 0.045,-0.045 c 0.286,-0.285 0.691,-0.48 1.142,-0.48 z M 42.02,19.153 h 9.287 l 11.317,-3.687 c 0.556,-0.18 1.172,0.12 1.352,0.69 0.18,0.569 -0.135,1.183 -0.691,1.363 l -5.004,1.634 h 8.49 l -2.389,-7.3 z m -17.298,0 42.215,-13.774 h 0.015 c 0.42,-0.135 0.872,-0.09 1.247,0.105 0.361,0.18 0.662,0.51 0.797,0.929 h 0.015 l 4.163,12.74 H 69.056 L 66.096,10.16 C 65.93,9.59 65.314,9.276 64.743,9.47 l -29.697,9.683 z m -14.202,0 L 34.746,2.44 c 0.36,-0.255 0.811,-0.33 1.217,-0.255 0.406,0.075 0.797,0.3 1.037,0.66 l 5.68,8.183 -4.282,1.394 -3.186,-4.601 c -0.33,-0.48 -1.022,-0.6 -1.503,-0.27 l -16.817,11.6 H 10.52 Z m 73.685,50.119 v 14.253 c 0,1.784 -0.722,3.402 -1.909,4.572 C 81.124,89.266 79.501,90 77.697,90 H 6.507 C 4.719,90 3.096,89.28 1.924,88.112 L 1.909,88.097 C 0.736,86.913 0,85.294 0,83.525 V 25.627 c 0,-1.783 0.736,-3.402 1.909,-4.57 1.172,-1.185 2.81,-1.904 4.598,-1.904 h 0.21 L 33.515,0.673 c 0.856,-0.6 1.878,-0.78 2.84,-0.615 0.947,0.18 1.833,0.72 2.435,1.574 l 6.026,8.693 21.4,-6.985 0.15,-0.03 c 0.963,-0.3 1.955,-0.18 2.796,0.24 0.857,0.42 1.533,1.17 1.864,2.114 0.03,0.045 0.045,0.105 0.06,0.15 l 4.358,13.339 h 2.254 c 1.789,0 3.412,0.719 4.6,1.903 1.186,1.17 1.908,2.788 1.908,4.571 V 42.28 h 1.713 c 0.601,0 1.082,0.494 1.082,1.079 v 24.835 c 0,0.6 -0.48,1.079 -1.082,1.079 H 84.206 Z M 82.04,42.279 V 25.627 c 0,-1.184 -0.481,-2.263 -1.278,-3.057 -0.781,-0.78 -1.863,-1.26 -3.066,-1.26 H 6.507 c -1.202,0 -2.284,0.48 -3.065,1.26 -0.782,0.794 -1.278,1.873 -1.278,3.057 v 57.898 c 0,1.184 0.496,2.263 1.278,3.043 v 0.015 c 0.781,0.78 1.863,1.259 3.065,1.259 h 71.19 c 1.203,0 2.285,-0.495 3.066,-1.274 0.797,-0.78 1.278,-1.859 1.278,-3.043 V 69.272 H 50.195 c -1.037,0 -1.984,-0.42 -2.675,-1.11 -0.691,-0.689 -1.112,-1.633 -1.112,-2.682 V 46.07 c 0,-1.003 0.39,-1.933 1.037,-2.607 l 0.075,-0.075 c 0.676,-0.69 1.638,-1.11 2.675,-1.11 H 82.041 Z M 36.264,13.128 34.054,9.935 23.324,17.339 Z"
     mask="url(#xo1ru64myc)"
     id="path11"
     style="fill-rule:evenodd;fill:#8b0430;fill-opacity:1" />
  <circle
     cx="61"
     cy="56"
     r="6.5"
     stroke="#ffffff"
     stroke-width="3"
     id="circle15"
     style="fill:none;fill-rule:evenodd" />
</svg>
